svg/u0039_20e3.svg

<svg viewBox="0 0 128 128" xmlns="http://www.w3.org/2000/svg">
  <g>
    <path d="M116.46,3.96h-104c-4.42,0-8,3.58-8,8v104c0,4.42,3.58,8,8,8h104c4.42,0,8-3.58,8-8v-104 C124.46,7.54,120.88,3.96,116.46,3.96z" fill="#427687"/>
    <path d="M122.16,6.26c-1.54-1.46-3.58-2.28-5.7-2.3h-104c-4.42,0-8,3.58-8,8v104 c0.02,2.12,0.84,4.16,2.3,5.7l16.8-16.8h76c3.26-0.01,5.89-2.64,5.9-5.9v-76L122.16,6.26z" fill="#8CAFBF"/>
    <path d="M40.16,12.86c0-2.3-1.6-3-10.8-2.7c-7.7,0.3-11.5,1.2-13.8,4 s-2.9,8.5-3,15.3c0,4.8,0,9.3,2.5,9.3c3.4,0,3.4-7.9,6.2-12.3C26.66,17.76,40.16,15.86,40.16,12.86z" opacity="0.5" fill="#B4E1ED" enable-background="new "/>
    <path d="M74.76,72.86c0.14-0.72-0.33-1.41-1.04-1.55c-0.37-0.07-0.76,0.02-1.06,0.25 c-3.04,2.42-6.82,3.73-10.7,3.7c-6,0-10.7-2.1-14.3-6.3s-5.3-9.7-5.3-16.5c-0.05-4.22,0.87-8.4,2.7-12.2 c1.7-3.51,4.38-6.46,7.7-8.5c3.51-2.05,7.53-3.09,11.6-3c6.8,0,12.3,2.5,16.3,7.6s6,11.9,6,20.5v3.2c0,12.3-2.8,21.6-8.3,28 s-13.8,9.7-24.8,9.8c-0.71-0.01-1.29-0.59-1.3-1.3v-6.7c0.01-0.71,0.59-1.29,1.3-1.3h0.3c6.7-0.1,11.8-1.7,15.4-4.8 C72.26,80.85,74.2,77.01,74.76,72.86z M64.56,66.36c2.17-0.03,4.29-0.69,6.1-1.9h0.1c2.86-1.97,4.54-5.23,4.5-8.7v-1 c0-5-1-8.9-3-12c-1.66-2.79-4.66-4.5-7.9-4.5c-3.09-0.09-6,1.43-7.7,4c-2.01,2.98-3.02,6.51-2.9,10.1c0,4.3,1,7.7,3,10.3 C58.59,65.11,61.51,66.5,64.56,66.36z" fill="#FAFAFA"/>
  </g>
</svg>

<svg viewBox="0 0 128 128" xmlns="http://www.w3.org/2000/svg">
  <defs/>
  <path d="M116.46,3.96 L12.46,3.96 C8.04,3.96 4.46,7.54 4.46,11.96 L4.46,115.96 C4.46,120.38 8.04,123.96 12.46,123.96 L116.46,123.96 C120.88,123.96 124.46,120.38 124.46,115.96 L124.46,11.96 C124.46,7.54 120.88,3.96 116.46,3.96 Z" fill="#427687"/>
  <path d="M122.16,6.26 C120.62,4.8 118.58,3.98 116.46,3.96 L12.46,3.96 C8.04,3.96 4.46,7.54 4.46,11.96 L4.46,115.96 C4.48,118.08 5.3,120.12 6.76,121.66 L23.56,104.86 L99.56,104.86 C102.82,104.85 105.45,102.22 105.46,98.96 L105.46,22.96 L122.16,6.26 Z" fill="#8CAFBF"/>
  <path d="M40.16,12.86 C40.16,10.56 38.56,9.86 29.36,10.16 C21.66,10.46 17.86,11.36 15.56,14.16 C13.26,16.96 12.66,22.66 12.56,29.46 C12.56,34.26 12.56,38.76 15.06,38.76 C18.46,38.76 18.46,30.86 21.26,26.46 C26.66,17.76 40.16,15.86 40.16,12.86 Z" fill="#B4E1ED" opacity="0.5"/>
  <path d="M74.76,72.86 C74.9,72.14 74.43,71.45 73.72,71.31 C73.35,71.24 72.96,71.33 72.66,71.56 C69.62,73.98 65.84,75.29 61.96,75.26 C55.96,75.26 51.26,73.16 47.66,68.96 C44.06,64.76 42.36,59.26 42.36,52.46 C42.31,48.24 43.23,44.06 45.06,40.26 C46.76,36.75 49.44,33.8 52.76,31.76 C56.27,29.71 60.29,28.67 64.36,28.76 C71.16,28.76 76.66,31.26 80.66,36.36 C84.66,41.46 86.66,48.26 86.66,56.86 L86.66,60.06 C86.66,72.36 83.86,81.66 78.36,88.06 C72.86,94.46 64.56,97.76 53.56,97.86 C52.85,97.85 52.27,97.27 52.26,96.56 L52.26,89.86 C52.27,89.15 52.85,88.57 53.56,88.56 L53.86,88.56 C60.56,88.46 65.66,86.86 69.26,83.76 C72.26,80.85 74.2,77.01 74.76,72.86 Z M64.56,66.36 C66.73,66.33 68.85,65.67 70.66,64.46 L70.76,64.46 C73.62,62.49 75.3,59.23 75.26,55.76 L75.26,54.76 C75.26,49.76 74.26,45.86 72.26,42.76 C70.6,39.97 67.6,38.26 64.36,38.26 C61.27,38.17 58.36,39.69 56.66,42.26 C54.65,45.24 53.64,48.77 53.76,52.36 C53.76,56.66 54.76,60.06 56.76,62.66 C58.59,65.11 61.51,66.5 64.56,66.36 Z" fill="#FAFAFA"/>
</svg>
